; Generated by ILC simulator
G21 ; mm
G90 ; absolute
G92 E0
G1 F1500
G0 X-0.220508 Y-0.220508 Z0
G1 X-0.208588 Y-0.220508 Z6.66667e-05 E0.00023839
G1 X-0.196669 Y-0.220508 Z0.000133333 E0.00047678
G1 X-0.18475 Y-0.220508 Z0.0002 E0.000715171
G1 X-0.17283 Y-0.220508 Z0.000266667 E0.000953561
G1 X-0.160911 Y-0.220508 Z0.000333333 E0.00119195
G1 X-0.148992 Y-0.220508 Z0.0004 E0.00143034
G1 X-0.137072 Y-0.220508 Z0.000466667 E0.00166873
G1 X-0.125153 Y-0.220508 Z0.000533333 E0.00190712
G1 X-0.113234 Y-0.220508 Z0.0006 E0.00214551
G1 X-0.101314 Y-0.220508 Z0.000666667 E0.0023839
G1 X-0.0893949 Y-0.220508 Z0.000733333 E0.00262229
G1 X-0.0774756 Y-0.220508 Z0.0008 E0.00286068
G1 X-0.0655563 Y-0.220508 Z0.000866667 E0.00309907
G1 X-0.053637 Y-0.220508 Z0.000933333 E0.00333746
G1 X-0.0417176 Y-0.220508 Z0.001 E0.00357585
G1 X-0.0297983 Y-0.220508 Z0.00106667 E0.00381424
G1 X-0.017879 Y-0.220508 Z0.00113333 E0.00405263
G1 X-0.00595966 Y-0.220508 Z0.0012 E0.00429102
G1 X0.00595966 Y-0.220508 Z0.00126667 E0.00452941
G1 X0.017879 Y-0.220508 Z0.00133333 E0.0047678
G1 X0.0297983 Y-0.220508 Z0.0014 E0.00500619
G1 X0.0417176 Y-0.220508 Z0.00146667 E0.00524459
G1 X0.053637 Y-0.220508 Z0.00153333 E0.00548298
G1 X0.0655563 Y-0.220508 Z0.0016 E0.00572137
G1 X0.0774756 Y-0.220508 Z0.00166667 E0.00595976
G1 X0.0893949 Y-0.220508 Z0.00173333 E0.00619815
G1 X0.101314 Y-0.220508 Z0.0018 E0.00643654
G1 X0.113234 Y-0.220508 Z0.00186667 E0.00667493
G1 X0.125153 Y-0.220508 Z0.00193333 E0.00691332
G1 X0.137072 Y-0.220508 Z0.002 E0.00715171
G1 X0.148992 Y-0.220508 Z0.00206667 E0.0073901
G1 X0.160911 Y-0.220508 Z0.00213333 E0.00762849
G1 X0.17283 Y-0.220508 Z0.0022 E0.00786688
G1 X0.18475 Y-0.220508 Z0.00226667 E0.00810527
G1 X0.196669 Y-0.220508 Z0.00233333 E0.00834366
G1 X0.208588 Y-0.220508 Z0.0024 E0.00858205
G1 X0.220508 Y-0.220508 Z0.00246667 E0.00882044
G1 X0.220508 Y-0.208588 Z0.00253333 E0.00905883
G1 X0.220508 Y-0.196669 Z0.0026 E0.00929722
G1 X0.220508 Y-0.18475 Z0.00266667 E0.00953561
G1 X0.220508 Y-0.17283 Z0.00273333 E0.009774
G1 X0.220508 Y-0.160911 Z0.0028 E0.0100124
G1 X0.220508 Y-0.148992 Z0.00286667 E0.0102508
G1 X0.220508 Y-0.137072 Z0.00293333 E0.0104892
G1 X0.220508 Y-0.125153 Z0.003 E0.0107276
G1 X0.220508 Y-0.113234 Z0.00306667 E0.010966
G1 X0.220508 Y-0.101314 Z0.00313333 E0.0112043
G1 X0.220508 Y-0.0893949 Z0.0032 E0.0114427
G1 X0.220508 Y-0.0774756 Z0.00326667 E0.0116811
G1 X0.220508 Y-0.0655563 Z0.00333333 E0.0119195
G1 X0.220508 Y-0.053637 Z0.0034 E0.0121579
G1 X0.220508 Y-0.0417176 Z0.00346667 E0.0123963
G1 X0.220508 Y-0.0297983 Z0.00353333 E0.0126347
G1 X0.220508 Y-0.017879 Z0.0036 E0.0128731
G1 X0.220508 Y-0.00595966 Z0.00366667 E0.0131115
G1 X0.220508 Y0.00595966 Z0.00373333 E0.0133499
G1 X0.220508 Y0.017879 Z0.0038 E0.0135882
G1 X0.220508 Y0.0297983 Z0.00386667 E0.0138266
G1 X0.220508 Y0.0417176 Z0.00393333 E0.014065
G1 X0.220508 Y0.053637 Z0.004 E0.0143034
G1 X0.220508 Y0.0655563 Z0.00406667 E0.0145418
G1 X0.220508 Y0.0774756 Z0.00413333 E0.0147802
G1 X0.220508 Y0.0893949 Z0.0042 E0.0150186
G1 X0.220508 Y0.101314 Z0.00426667 E0.015257
G1 X0.220508 Y0.113234 Z0.00433333 E0.0154954
G1 X0.220508 Y0.125153 Z0.0044 E0.0157338
G1 X0.220508 Y0.137072 Z0.00446667 E0.0159721
G1 X0.220508 Y0.148992 Z0.00453333 E0.0162105
G1 X0.220508 Y0.160911 Z0.0046 E0.0164489
G1 X0.220508 Y0.17283 Z0.00466667 E0.0166873
G1 X0.220508 Y0.18475 Z0.00473333 E0.0169257
G1 X0.220508 Y0.196669 Z0.0048 E0.0171641
G1 X0.220508 Y0.208588 Z0.00486667 E0.0174025
G1 X0.220508 Y0.220508 Z0.00493333 E0.0176409
G1 X0.208588 Y0.220508 Z0.005 E0.0178793
G1 X0.196669 Y0.220508 Z0.00506667 E0.0181177
G1 X0.18475 Y0.220508 Z0.00513333 E0.018356
G1 X0.17283 Y0.220508 Z0.0052 E0.0185944
G1 X0.160911 Y0.220508 Z0.00526667 E0.0188328
G1 X0.148992 Y0.220508 Z0.00533333 E0.0190712
G1 X0.137072 Y0.220508 Z0.0054 E0.0193096
G1 X0.125153 Y0.220508 Z0.00546667 E0.019548
G1 X0.113234 Y0.220508 Z0.00553333 E0.0197864
G1 X0.101314 Y0.220508 Z0.0056 E0.0200248
G1 X0.0893949 Y0.220508 Z0.00566667 E0.0202632
G1 X0.0774756 Y0.220508 Z0.00573333 E0.0205016
G1 X0.0655563 Y0.220508 Z0.0058 E0.0207399
G1 X0.053637 Y0.220508 Z0.00586667 E0.0209783
G1 X0.0417176 Y0.220508 Z0.00593333 E0.0212167
G1 X0.0297983 Y0.220508 Z0.006 E0.0214551
G1 X0.017879 Y0.220508 Z0.00606667 E0.0216935
G1 X0.00595966 Y0.220508 Z0.00613333 E0.0219319
G1 X-0.00595966 Y0.220508 Z0.0062 E0.0221703
G1 X-0.017879 Y0.220508 Z0.00626667 E0.0224087
G1 X-0.0297983 Y0.220508 Z0.00633333 E0.0226471
G1 X-0.0417176 Y0.220508 Z0.0064 E0.0228855
G1 X-0.053637 Y0.220508 Z0.00646667 E0.0231239
G1 X-0.0655563 Y0.220508 Z0.00653333 E0.0233622
G1 X-0.0774756 Y0.220508 Z0.0066 E0.0236006
G1 X-0.0893949 Y0.220508 Z0.00666667 E0.023839
G1 X-0.101314 Y0.220508 Z0.00673333 E0.0240774
G1 X-0.113234 Y0.220508 Z0.0068 E0.0243158
G1 X-0.125153 Y0.220508 Z0.00686667 E0.0245542
G1 X-0.137072 Y0.220508 Z0.00693333 E0.0247926
G1 X-0.148992 Y0.220508 Z0.007 E0.025031
G1 X-0.160911 Y0.220508 Z0.00706667 E0.0252694
G1 X-0.17283 Y0.220508 Z0.00713333 E0.0255078
G1 X-0.18475 Y0.220508 Z0.0072 E0.0257461
G1 X-0.196669 Y0.220508 Z0.00726667 E0.0259845
G1 X-0.208588 Y0.220508 Z0.00733333 E0.0262229
G1 X-0.220508 Y0.220508 Z0.0074 E0.0264613
G1 X-0.220508 Y0.208588 Z0.00746667 E0.0266997
G1 X-0.220508 Y0.196669 Z0.00753333 E0.0269381
G1 X-0.220508 Y0.18475 Z0.0076 E0.0271765
G1 X-0.220508 Y0.17283 Z0.00766667 E0.0274149
G1 X-0.220508 Y0.160911 Z0.00773333 E0.0276533
G1 X-0.220508 Y0.148992 Z0.0078 E0.0278917
G1 X-0.220508 Y0.137072 Z0.00786667 E0.02813
G1 X-0.220508 Y0.125153 Z0.00793333 E0.0283684
G1 X-0.220508 Y0.113234 Z0.008 E0.0286068
G1 X-0.220508 Y0.101314 Z0.00806667 E0.0288452
G1 X-0.220508 Y0.0893949 Z0.00813333 E0.0290836
G1 X-0.220508 Y0.0774756 Z0.0082 E0.029322
G1 X-0.220508 Y0.0655563 Z0.00826667 E0.0295604
G1 X-0.220508 Y0.053637 Z0.00833333 E0.0297988
G1 X-0.220508 Y0.0417176 Z0.0084 E0.0300372
G1 X-0.220508 Y0.0297983 Z0.00846667 E0.0302756
G1 X-0.220508 Y0.017879 Z0.00853333 E0.0305139
G1 X-0.220508 Y0.00595966 Z0.0086 E0.0307523
G1 X-0.220508 Y-0.00595966 Z0.00866667 E0.0309907
G1 X-0.220508 Y-0.017879 Z0.00873333 E0.0312291
G1 X-0.220508 Y-0.0297983 Z0.0088 E0.0314675
G1 X-0.220508 Y-0.0417176 Z0.00886667 E0.0317059
G1 X-0.220508 Y-0.053637 Z0.00893333 E0.0319443
G1 X-0.220508 Y-0.0655563 Z0.009 E0.0321827
G1 X-0.220508 Y-0.0774756 Z0.00906667 E0.0324211
G1 X-0.220508 Y-0.0893949 Z0.00913333 E0.0326595
G1 X-0.220508 Y-0.101314 Z0.0092 E0.0328979
G1 X-0.220508 Y-0.113234 Z0.00926667 E0.0331362
G1 X-0.220508 Y-0.125153 Z0.00933333 E0.0333746
G1 X-0.220508 Y-0.137072 Z0.0094 E0.033613
G1 X-0.220508 Y-0.148992 Z0.00946667 E0.0338514
G1 X-0.220508 Y-0.160911 Z0.00953333 E0.0340898
G1 X-0.220508 Y-0.17283 Z0.0096 E0.0343282
G1 X-0.220508 Y-0.18475 Z0.00966667 E0.0345666
G1 X-0.220508 Y-0.196669 Z0.00973333 E0.034805
G1 X-0.220508 Y-0.208588 Z0.0098 E0.0350434
G1 X-0.220508 Y-0.208588 Z0.00986667 E0.0350447
G1 X-0.220508 Y-0.208588 Z0.00993333 E0.035046
G1 X-0.208109 Y-0.215372 Z0.01 E0.0353287
G1 X-0.196473 Y-0.215068 Z0.0100667 E0.0355615
G1 X-0.184851 Y-0.214764 Z0.0101333 E0.035794
G1 X-0.173241 Y-0.214461 Z0.0102 E0.0360263
G1 X-0.161643 Y-0.21416 Z0.0102667 E0.0362583
G1 X-0.150059 Y-0.213862 Z0.0103333 E0.0364901
G1 X-0.138487 Y-0.213565 Z0.0104 E0.0367216
G1 X-0.126927 Y-0.213272 Z0.0104667 E0.0369529
G1 X-0.115379 Y-0.212983 Z0.0105333 E0.0371839
G1 X-0.103843 Y-0.212698 Z0.0106 E0.0374147
G1 X-0.0923194 Y-0.212418 Z0.0106667 E0.0376453
G1 X-0.0808072 Y-0.212142 Z0.0107333 E0.0378756
G1 X-0.0693064 Y-0.211873 Z0.0108 E0.0381057
G1 X-0.0578168 Y-0.211609 Z0.0108667 E0.0383355
G1 X-0.0463381 Y-0.211352 Z0.0109333 E0.0385652
G1 X-0.03487 Y-0.211103 Z0.011 E0.0387946
G1 X-0.0234122 Y-0.21086 Z0.0110667 E0.0390238
G1 X-0.0119644 Y-0.210626 Z0.0111333 E0.0392528
G1 X-0.000526285 Y-0.2104 Z0.0112 E0.0394816
G1 X0.0109026 Y-0.210182 Z0.0112667 E0.0397102
G1 X0.0223225 Y-0.209974 Z0.0113333 E0.0399387
G1 X0.033734 Y-0.209775 Z0.0114 E0.0401669
G1 X0.0451373 Y-0.209586 Z0.0114667 E0.040395
G1 X0.0565329 Y-0.209408 Z0.0115333 E0.040623
G1 X0.0679212 Y-0.209239 Z0.0116 E0.0408508
G1 X0.0793027 Y-0.209082 Z0.0116667 E0.0410784
G1 X0.0906778 Y-0.208935 Z0.0117333 E0.041306
G1 X0.102047 Y-0.2088 Z0.0118 E0.0415334
G1 X0.113411 Y-0.208676 Z0.0118667 E0.0417607
G1 X0.12477 Y-0.208564 Z0.0119333 E0.0419879
G1 X0.136124 Y-0.208464 Z0.012 E0.042215
G1 X0.147475 Y-0.208376 Z0.0120667 E0.042442
G1 X0.158822 Y-0.208301 Z0.0121333 E0.0426689
G1 X0.170166 Y-0.208237 Z0.0122 E0.0428958
G1 X0.181508 Y-0.208187 Z0.0122667 E0.0431227
G1 X0.192847 Y-0.208148 Z0.0123333 E0.0433495
G1 X0.204186 Y-0.208123 Z0.0124 E0.0435762
G1 X0.215524 Y-0.20811 Z0.0124667 E0.043803
G1 X0.21522 Y-0.196469 Z0.0125333 E0.0440359
G1 X0.214916 Y-0.18484 Z0.0126 E0.0442686
G1 X0.214613 Y-0.173223 Z0.0126667 E0.044501
G1 X0.214311 Y-0.16162 Z0.0127333 E0.0447331
G1 X0.214011 Y-0.150029 Z0.0128 E0.044965
G1 X0.213713 Y-0.13845 Z0.0128667 E0.0451967
G1 X0.213419 Y-0.126884 Z0.0129333 E0.0454281
G1 X0.213127 Y-0.11533 Z0.013 E0.0456592
G1 X0.21284 Y-0.103789 Z0.0130667 E0.0458902
G1 X0.212557 Y-0.092259 Z0.0131333 E0.0461208
G1 X0.212279 Y-0.080741 Z0.0132 E0.0463513
G1 X0.212007 Y-0.0692346 Z0.0132667 E0.0465814
G1 X0.21174 Y-0.0577394 Z0.0133333 E0.0468114
G1 X0.21148 Y-0.0462553 Z0.0134 E0.0470412
G1 X0.211227 Y-0.0347819 Z0.0134667 E0.0472707
G1 X0.21098 Y-0.023319 Z0.0135333 E0.0475
G1 X0.210742 Y-0.0118663 Z0.0136 E0.0477291
G1 X0.210512 Y-0.000423322 Z0.0136667 E0.047958
G1 X0.21029 Y0.0110101 Z0.0137333 E0.0481867
G1 X0.210077 Y0.0224345 Z0.0138 E0.0484153
G1 X0.209874 Y0.0338501 Z0.0138667 E0.0486436
G1 X0.20968 Y0.0452575 Z0.0139333 E0.0488718
G1 X0.209496 Y0.0566569 Z0.014 E0.0490998
G1 X0.209322 Y0.0680488 Z0.0140667 E0.0493277
G1 X0.209159 Y0.0794336 Z0.0141333 E0.0495554
G1 X0.209007 Y0.0908119 Z0.0142 E0.049783
G1 X0.208866 Y0.102184 Z0.0142667 E0.0500105
G1 X0.208737 Y0.11355 Z0.0143333 E0.0502378
G1 X0.208619 Y0.124912 Z0.0144 E0.0504651
G1 X0.208513 Y0.136268 Z0.0144667 E0.0506922
G1 X0.208419 Y0.147621 Z0.0145333 E0.0509193
G1 X0.208337 Y0.158969 Z0.0146 E0.0511463
G1 X0.208267 Y0.170315 Z0.0146667 E0.0513732
G1 X0.20821 Y0.181658 Z0.0147333 E0.0516
G1 X0.208166 Y0.192999 Z0.0148 E0.0518269
G1 X0.208134 Y0.204338 Z0.0148667 E0.0520536
G1 X0.208115 Y0.215676 Z0.0149333 E0.0522804
G1 X0.196467 Y0.215372 Z0.015 E0.0525135
G1 X0.184832 Y0.215068 Z0.0150667 E0.0527462
G1 X0.173209 Y0.214764 Z0.0151333 E0.0529788
G1 X0.161599 Y0.214461 Z0.0152 E0.0532111
G1 X0.150002 Y0.21416 Z0.0152667 E0.0534431
G1 X0.138417 Y0.213862 Z0.0153333 E0.0536749
G1 X0.126845 Y0.213565 Z0.0154 E0.0539064
G1 X0.115285 Y0.213272 Z0.0154667 E0.0541377
G1 X0.103737 Y0.212983 Z0.0155333 E0.0543687
G1 X0.0922015 Y0.212698 Z0.0156 E0.0545995
G1 X0.0806777 Y0.212418 Z0.0156667 E0.05483
G1 X0.0691655 Y0.212142 Z0.0157333 E0.0550603
G1 X0.0576647 Y0.211873 Z0.0158 E0.0552904
G1 X0.0461751 Y0.211609 Z0.0158667 E0.0555203
G1 X0.0346964 Y0.211352 Z0.0159333 E0.0557499
G1 X0.0232283 Y0.211103 Z0.016 E0.0559793
G1 X0.0117705 Y0.21086 Z0.0160667 E0.0562086
G1 X0.000322727 Y0.210626 Z0.0161333 E0.0564376
G1 X-0.0111154 Y0.2104 Z0.0162 E0.0566664
G1 X-0.0225443 Y0.210182 Z0.0162667 E0.056895
G1 X-0.0339642 Y0.209974 Z0.0163333 E0.0571234
G1 X-0.0453757 Y0.209775 Z0.0164 E0.0573517
G1 X-0.056779 Y0.209586 Z0.0164667 E0.0575798
G1 X-0.0681746 Y0.209408 Z0.0165333 E0.0578077
G1 X-0.0795629 Y0.209239 Z0.0166 E0.0580355
G1 X-0.0909444 Y0.209082 Z0.0166667 E0.0582632
G1 X-0.10232 Y0.208935 Z0.0167333 E0.0584907
G1 X-0.113689 Y0.2088 Z0.0168 E0.0587181
G1 X-0.125053 Y0.208676 Z0.0168667 E0.0589454
G1 X-0.136411 Y0.208564 Z0.0169333 E0.0591726
G1 X-0.147766 Y0.208464 Z0.017 E0.0593997
G1 X-0.159116 Y0.208376 Z0.0170667 E0.0596267
G1 X-0.170463 Y0.208301 Z0.0171333 E0.0598537
G1 X-0.181808 Y0.208237 Z0.0172 E0.0600806
G1 X-0.193149 Y0.208187 Z0.0172667 E0.0603074
G1 X-0.204489 Y0.208148 Z0.0173333 E0.0605342
G1 X-0.215828 Y0.208123 Z0.0174 E0.060761
G1 X-0.215524 Y0.196469 Z0.0174667 E0.0609942
G1 X-0.21522 Y0.184827 Z0.0175333 E0.0612271
G1 X-0.214916 Y0.173198 Z0.0176 E0.0614597
G1 X-0.214613 Y0.161582 Z0.0176667 E0.0616922
G1 X-0.214311 Y0.149978 Z0.0177333 E0.0619243
G1 X-0.214011 Y0.138387 Z0.0178 E0.0621562
G1 X-0.213713 Y0.126809 Z0.0178667 E0.0623879
G1 X-0.213419 Y0.115242 Z0.0179333 E0.0626193
G1 X-0.213127 Y0.103689 Z0.018 E0.0628504
G1 X-0.21284 Y0.092147 Z0.0180667 E0.0630813
G1 X-0.212557 Y0.0806173 Z0.0181333 E0.063312
G1 X-0.212279 Y0.0690993 Z0.0182 E0.0635424
G1 X-0.212007 Y0.0575928 Z0.0182667 E0.0637726
G1 X-0.21174 Y0.0460977 Z0.0183333 E0.0640026
G1 X-0.21148 Y0.0346136 Z0.0184 E0.0642323
G1 X-0.211227 Y0.0231402 Z0.0184667 E0.0644619
G1 X-0.21098 Y0.0116773 Z0.0185333 E0.0646912
G1 X-0.210742 Y0.000224543 Z0.0186 E0.0649203
G1 X-0.210512 Y-0.0112184 Z0.0186667 E0.0651492
G1 X-0.21029 Y-0.0226519 Z0.0187333 E0.0653779
G1 X-0.210077 Y-0.0340762 Z0.0188 E0.0656064
G1 X-0.209874 Y-0.0454919 Z0.0188667 E0.0658348
G1 X-0.20968 Y-0.0568992 Z0.0189333 E0.066063
G1 X-0.209496 Y-0.0682986 Z0.019 E0.066291
G1 X-0.209322 Y-0.0796905 Z0.0190667 E0.0665189
G1 X-0.209159 Y-0.0910753 Z0.0191333 E0.0667466
G1 X-0.209007 Y-0.102454 Z0.0192 E0.0669742
G1 X-0.208866 Y-0.113826 Z0.0192667 E0.0672016
G1 X-0.208737 Y-0.125192 Z0.0193333 E0.067429
G1 X-0.208619 Y-0.136553 Z0.0194 E0.0676562
G1 X-0.208513 Y-0.14791 Z0.0194667 E0.0678834
G1 X-0.208419 Y-0.159262 Z0.0195333 E0.0681104
G1 X-0.208337 Y-0.170611 Z0.0196 E0.0683374
G1 X-0.208267 Y-0.181957 Z0.0196667 E0.0685643
G1 X-0.20821 Y-0.1933 Z0.0197333 E0.0687912
G1 X-0.208166 Y-0.20464 Z0.0198 E0.069018
G1 X-0.208134 Y-0.204338 Z0.0198667 E0.0690243
G1 X-0.208115 Y-0.204034 Z0.0199333 E0.0690305
G1 X-0.174112 Y-0.20129 Z0.02 E0.0697128
G1 X-0.163255 Y-0.200152 Z0.0200667 E0.0699311
G1 X-0.152446 Y-0.199016 Z0.0201333 E0.0701485
G1 X-0.141684 Y-0.197883 Z0.0202 E0.0703649
G1 X-0.13097 Y-0.196757 Z0.0202667 E0.0705804
G1 X-0.120303 Y-0.195639 Z0.0203333 E0.0707949
G1 X-0.109682 Y-0.194531 Z0.0204 E0.0710084
G1 X-0.099108 Y-0.193434 Z0.0204667 E0.0712211
G1 X-0.0885792 Y-0.192352 Z0.0205333 E0.0714328
G1 X-0.0780955 Y-0.191285 Z0.0206 E0.0716435
G1 X-0.0676561 Y-0.190235 Z0.0206667 E0.0718534
G1 X-0.0572602 Y-0.189205 Z0.0207333 E0.0720623
G1 X-0.0469071 Y-0.188197 Z0.0208 E0.0722704
G1 X-0.0365958 Y-0.187211 Z0.0208667 E0.0724775
G1 X-0.0263252 Y-0.18625 Z0.0209333 E0.0726838
G1 X-0.0160943 Y-0.185315 Z0.021 E0.0728893
G1 X-0.00590205 Y-0.184408 Z0.0210667 E0.073094
G1 X0.00425286 Y-0.183531 Z0.0211333 E0.0732978
G1 X0.0143717 Y-0.182685 Z0.0212 E0.0735009
G1 X0.0244557 Y-0.181872 Z0.0212667 E0.0737033
G1 X0.0345065 Y-0.181092 Z0.0213333 E0.0739049
G1 X0.0445253 Y-0.180349 Z0.0214 E0.0741058
G1 X0.0545137 Y-0.179642 Z0.0214667 E0.0743061
G1 X0.0644732 Y-0.178972 Z0.0215333 E0.0745057
G1 X0.0744056 Y-0.178343 Z0.0216 E0.0747048
G1 X0.0843124 Y-0.177753 Z0.0216667 E0.0749033
G1 X0.0941954 Y-0.177204 Z0.0217333 E0.0751012
G1 X0.104056 Y-0.176698 Z0.0218 E0.0752987
G1 X0.113897 Y-0.176235 Z0.0218667 E0.0754958
G1 X0.123719 Y-0.175816 Z0.0219333 E0.0756924
G1 X0.133525 Y-0.175442 Z0.022 E0.0758886
G1 X0.143315 Y-0.175113 Z0.0220667 E0.0760846
G1 X0.153093 Y-0.17483 Z0.0221333 E0.0762802
G1 X0.16286 Y-0.174593 Z0.0222 E0.0764756
G1 X0.172618 Y-0.174403 Z0.0222667 E0.0766708
G1 X0.18237 Y-0.174261 Z0.0223333 E0.0768659
G1 X0.192116 Y-0.174165 Z0.0224 E0.0770608
G1 X0.201859 Y-0.174118 Z0.0224667 E0.0772557
G1 X0.200721 Y-0.163237 Z0.0225333 E0.0774745
G1 X0.199583 Y-0.152404 Z0.0226 E0.0776923
G1 X0.198449 Y-0.141619 Z0.0226667 E0.0779092
G1 X0.197319 Y-0.130881 Z0.0227333 E0.0781252
G1 X0.196197 Y-0.12019 Z0.0228 E0.0783402
G1 X0.195084 Y-0.109547 Z0.0228667 E0.0785542
G1 X0.193981 Y-0.0989492 Z0.0229333 E0.0787673
G1 X0.192891 Y-0.0883977 Z0.023 E0.0789795
G1 X0.191816 Y-0.0778915 Z0.0230667 E0.0791907
G1 X0.190758 Y-0.06743 Z0.0231333 E0.079401
G1 X0.189718 Y-0.0570125 Z0.0232 E0.0796104
G1 X0.188698 Y-0.0466381 Z0.0232667 E0.0798189
